X:1
T: Vivaldi in Paradise
N:
C:V Kaynor (from A Vivaldi)
S:Original tune is "Allegro" by Vivaldi
A:
O:
R:
M:4/4
K:Em
I:speed 210
%W:
% voice 1 (1 lines, 42 notes)
K:Em
M:4/4
L:1/16
B4 |E2 F2 G2 A2 B4 g4 |e8 ^d4 e4 |F2 G2 A2 B2 c4 A4 |G4 F4 E4 e4 |g2 f2 e4 d2 c2 B4 |c2 B2 A4A4 d4 |f2 e2 d4 c2 B2 A4 |B2 A2 G4G4 B4 |
%W:
% voice 1 (1 lines, 41 notes)
E2 F2 G2 A2 B4 g4 |e8 ^d4 e4 |F2 G2 A2 B2 c4 A4 |G4 F4 E4 e4 |g2 f2 e4 d2 c2 B4 |c2 B2 A4A4 d4 |f2 e2 d4 c2 B2 A4 |B2 A2 G4G4 G4 |
%W:
% voice 1 (1 lines, 60 notes)
A2 A2 ^G2 A2 c2 A2 G2 A2 |e2 A2 ^G2 A2 c2 A2 G2 A2 |e2 A2 ^G2 A2 c2 A2 g2 A2 |B2 ^c2 d2 e2 f2 e2 d2 c2 |B2 ^c2 d2 e2 f2 d2 c2 B2 |F2 ^G2 ^A2 B2 ^c2 B2 A2 G2 |F2 ^G2 ^A2 B2 ^c2 E2 D2 C2 |D4 B,4 z4 B4 |
%W:                                                                                                                            Last time
% voice 1 (1 lines, 59 notes)
^d2 f2 b2 f2 d2 f2 b2 f2 |g2 e2 B2 e2 g2 e2 B2 e2 |^c2 e2 a2 e2 c2 e2 a2 e2 |f4 A4 D4 d4 |B2 d2 g2 d2 B2 d2 g2 d2 |e2 ^c2 G2 c2 e2 c2 G2 c2 |^A2 ^c2 f2 c2 A2 c2 f2 c2 |d4 B4 B,4 B4 |d4 f4 b4 ||
